KINDER
CUT[HAENSCHEN SASS IM SCHORNSTEIN]
REG[Europa, Mitteleuropa, Deutschland, Norddeutschland, Mecklenburg]
KEY[K0578  16  F 2/4]
MEL[  1_2_3_4_  5__5_
    5_  6_4_+1_6_  5__0_
    5_  4_4_4_4_  3__3_
    3_  3_2_2_3_  1__0__
    1_2_3_4_  5__5_
    5_  6_4_+1_6_  5__0_
    5_  4_4_4_4_  3__3_
    3_  3_2_2_3_  1__0_
    -5_  1_.33_3_  2_.44_
    4_  3_1_5_3_  2__0_
    -5_  1_.33_3_  2_.44_
    4_  3_1_2_-7_  1__0__ //] >>
FCT[Kinder -, Spiel - Lied]
